X:628
T: NUN DANKET ALLE GOTT
N: E1986
O: Europa, Mitteleuropa, Deutschland
R: geistlich, Dank - Lied, Choral
M: 4/4
L: 1/4
K: G
d | ddee | d3
B | cBAB | A2G
d | ddee | d3
B | cBAB | A2G
A | AABB | A3
A | Bdd^c | d3
d | edcB | c3
B | ABAA | G3

@@@ Tune index: 5312
